svg/white/kmd.svg

<svg width="96" height="96" viewBox="0 0 96 96" fill="none" xmlns="http://www.w3.org/2000/svg">
<g id="white/kmd">
<path id="Subtract" fill-rule="evenodd" clip-rule="evenodd" d="M48 96C74.5097 96 96 74.5097 96 48C96 21.4903 74.5097 0 48 0C21.4903 0 0 21.4903 0 48C0 74.5097 21.4903 96 48 96ZM15.0001 48.0007C14.9833 56.7528 18.4441 65.1531 24.6209 71.3536C30.7978 77.5542 39.1848 81.047 47.9369 81.0637C56.6891 81.0805 65.0894 77.6197 71.2899 71.4429C77.4905 65.266 80.9833 56.879 81 48.1268V47.8745C80.9888 45.3342 80.6859 42.8036 80.0972 40.3325C79.9895 39.8803 79.7938 39.4538 79.5213 39.0773C79.2488 38.7008 78.9047 38.3816 78.5089 38.1381C78.113 37.8945 77.6731 37.7313 77.2141 37.6578C76.7552 37.5843 76.2863 37.6019 75.8341 37.7096C75.382 37.8173 74.9555 38.013 74.579 38.2855C74.2025 38.558 73.8833 38.902 73.6398 39.2979C73.3962 39.6937 73.233 40.1337 73.1595 40.5926C73.0859 41.0516 73.1035 41.5205 73.2112 41.9726C74.5267 47.4663 74.0124 53.2393 71.7466 58.414C69.4808 63.5887 65.5875 67.8821 60.6583 70.6416C55.7292 73.401 50.0338 74.4756 44.438 73.702C38.8423 72.9284 33.6521 70.3489 29.6565 66.3557C25.6609 62.3624 23.0783 57.1737 22.3015 51.5784C21.5246 45.9831 22.5959 40.2871 25.3525 35.3563C28.109 30.4256 32.4002 26.5297 37.5735 24.2609C42.7469 21.9921 48.5196 21.4744 54.014 22.7867C54.9272 23.0042 55.8893 22.85 56.6888 22.3581C57.4883 21.8663 58.0596 21.0769 58.2771 20.1638C58.4946 19.2506 58.3405 18.2885 57.8486 17.489C57.3567 16.6895 56.5674 16.1182 55.6542 15.9007C50.8056 14.744 45.7578 14.7008 40.8901 15.7745C36.0224 16.8481 31.4611 19.0106 27.5489 22.0997C23.6367 25.1887 20.4752 29.124 18.3018 33.6099C16.1284 38.0959 14.9995 43.0159 15.0001 48.0007ZM64.6098 23.9443C64.6313 23.9163 64.6528 23.8886 64.6794 23.8635L64.6822 23.8663C65.615 22.9364 66.8627 22.3903 68.1787 22.336C69.4947 22.2817 70.7831 22.7231 71.7894 23.5729C72.7956 24.4227 73.4464 25.6191 73.6131 26.9256C73.7799 28.2321 73.4503 29.5536 72.6897 30.6289C72.5212 30.8715 72.3337 31.1002 72.129 31.313C71.2652 32.1809 70.124 32.7178 68.9047 32.8298H68.857C68.7575 32.8298 68.6579 32.8354 68.5584 32.841C68.4589 32.8466 68.3593 32.8523 68.2598 32.8523C68.2274 32.8535 68.1956 32.8584 68.1638 32.8633C68.1269 32.869 68.09 32.8747 68.0523 32.8747C66.7055 32.988 65.3988 33.3895 64.2207 34.0521C63.0427 34.7147 62.0208 35.6227 61.2245 36.7148C60.4281 37.8068 59.8758 39.0573 59.605 40.3815C59.3343 41.7057 59.3514 43.0726 59.6551 44.3896C59.6583 44.4022 59.663 44.4143 59.6676 44.4264C59.6754 44.4466 59.6832 44.4667 59.6832 44.4878C59.7364 44.7121 59.7925 44.9307 59.8626 45.1522C60.2611 46.8271 60.3007 48.5673 59.9789 50.2586C59.6571 51.9498 58.9811 53.5539 57.9953 54.9653C57.5903 55.5605 57.1324 56.1179 56.6271 56.6307C54.3372 58.9206 51.2314 60.2071 47.993 60.2071C44.7546 60.2071 41.6488 58.9206 39.3589 56.6307C37.069 54.3408 35.7825 51.2351 35.7825 47.9966C35.7825 44.7582 37.069 41.6524 39.3589 39.3625C39.4255 39.2959 39.4966 39.2364 39.5677 39.1771C39.6222 39.1315 39.6766 39.086 39.729 39.0373C41.2007 37.6669 42.9898 36.6835 44.9356 36.1755C46.8814 35.6675 48.9228 35.6509 50.8766 36.127C51.1103 36.2037 51.3458 36.2681 51.5832 36.3205C52.8897 36.6269 54.2466 36.6507 55.563 36.3903C56.8795 36.1299 58.1251 35.5914 59.2166 34.8107C60.3081 34.03 61.2203 33.0252 61.8921 31.8636C62.5639 30.7019 62.9799 29.4101 63.1121 28.0747C63.1169 28.0313 63.1232 27.9882 63.1294 27.9452C63.1418 27.8605 63.1542 27.7762 63.1542 27.6906V27.1298C63.2575 25.9617 63.7514 24.8624 64.5561 24.0093C64.5758 23.9883 64.5928 23.9662 64.6098 23.9443Z" fill="white"/>
</g>
</svg>

<svg width="96" height="96" viewBox="0 0 96 96" fill="none" xmlns="http://www.w3.org/2000/svg"><path fill-rule="evenodd" clip-rule="evenodd" d="M48 96c26.51 0 48-21.49 48-48S74.51 0 48 0 0 21.49 0 48s21.49 48 48 48zM15 48a33 33 0 1066 .127v-.253a33.175 33.175 0 00-.903-7.541 3.54 3.54 0 10-6.886 1.64 25.934 25.934 0 11-19.197-19.186 3.54 3.54 0 001.64-6.886A32.996 32.996 0 0015 48zm49.61-24.056a.66.66 0 01.07-.08l.002.002a5.26 5.26 0 018.008 6.763 5.57 5.57 0 01-.561.684 5.223 5.223 0 01-3.224 1.517h-.048c-.1 0-.2.005-.299.011-.1.006-.199.011-.298.011a1.006 1.006 0 00-.096.011.73.73 0 01-.112.012 9.428 9.428 0 00-8.397 11.515c.003.012.008.024.013.036.007.02.015.04.015.062.053.224.11.443.18.664a12.205 12.205 0 01-1.868 9.813 11.954 11.954 0 01-1.368 1.666A12.21 12.21 0 1139.36 39.362c.066-.066.138-.126.209-.185.054-.045.109-.091.161-.14a12.14 12.14 0 0111.148-2.91 9.422 9.422 0 0012.235-8.052l.017-.13a1.68 1.68 0 00.025-.254v-.561a5.218 5.218 0 011.402-3.12c.02-.022.037-.044.054-.066z" fill="#fff"/></svg>
